packages/blockchain-info-components/src/Images/img/visa-new-logo.svg

<svg fill="none" height="32" viewBox="0 0 32 32" width="32" xmlns="http://www.w3.org/2000/svg"><path d="m0 10c0-2.20914 1.79086-4 4-4h24c2.2091 0 4 1.79086 4 4v12c0 2.2091-1.7909 4-4 4h-24c-2.20914 0-4-1.7909-4-4z" fill="#f0f2f7"/><g fill="#15195a"><path d="m21.4477 12.5701c-.3834-.1521-.9917-.3201-1.7437-.3201-1.92 0-3.272 1.0238-3.2803 2.4875-.0159 1.08.968 1.6798 1.7039 2.0399.7522.3679 1.0079.6081 1.0079.9361-.0077.5037-.6078.7359-1.1675.7359-.7762 0-1.1921-.1197-1.8242-.4l-.256-.1201-.272 1.6878c.4559.2078 1.296.3921 2.1682.4002 2.04 0 3.3681-1.008 3.3838-2.5678.0078-.8559-.5118-1.5118-1.6319-2.0477-.68-.344-1.0964-.576-1.0964-.928.0079-.32.3522-.6478 1.1198-.6478.632-.0161 1.0964.1359 1.4482.2879l.1758.0798z"/><path d="m14.4 19.9053h-1.9442l1.216-7.519h1.9441z"/><path clip-rule="evenodd" d="m24.9277 12.3863h1.5038l1.5685 7.5189h-1.8001s-.1762-.864-.232-1.1279h-2.4961l-.4081 1.1279h-2.0399l2.8878-6.895c.2001-.488.5524-.6239 1.0161-.6239zm-.1198 2.7515s-.6161 1.6718-.7762 2.1038h1.616c-.08-.376-.4481-2.1758-.4481-2.1758l-.1359-.6478c-.0572.1667-.1398.3959-.1957.5506l-.0003.0009c-.0377.1045-.063.1748-.0598.1683z" fill-rule="evenodd"/><path d="m10.8319 12.3863-1.90393 5.1272-.20806-1.0398c-.00005-.0002.00005.0001 0 0l-.67997-3.4554c-.11195-.4802-.45598-.6162-.87996-.632h-3.12798l-.032.1519c.76289.1951 1.44523.4762 2.0431.8258l1.73285 6.5333h2.0559l3.05585-7.511z"/></g></svg>

<svg width="32" height="32" viewBox="0 0 32 32" fill="none" xmlns="http://www.w3.org/2000/svg">
<path d="M0 10C0 7.79086 1.79086 6 4 6H28C30.2091 6 32 7.79086 32 10V22C32 24.2091 30.2091 26 28 26H4C1.79086 26 0 24.2091 0 22V10Z" fill="#F0F2F7"/>
<path d="M21.4477 12.5701C21.0643 12.418 20.456 12.25 19.704 12.25C17.784 12.25 16.432 13.2738 16.4237 14.7375C16.4078 15.8175 17.3917 16.4173 18.1276 16.7774C18.8798 17.1453 19.1355 17.3855 19.1355 17.7135C19.1278 18.2172 18.5277 18.4494 17.968 18.4494C17.1918 18.4494 16.7759 18.3297 16.1438 18.0494L15.8878 17.9293L15.6158 19.6171C16.0717 19.8249 16.9118 20.0092 17.784 20.0173C19.824 20.0173 21.1521 19.0093 21.1678 17.4495C21.1756 16.5936 20.656 15.9377 19.5359 15.4018C18.8559 15.0578 18.4395 14.8258 18.4395 14.4738C18.4474 14.1538 18.7917 13.826 19.5593 13.826C20.1913 13.8099 20.6557 13.9619 21.0075 14.1139L21.1833 14.1937L21.4477 12.5701Z" fill="#15195A"/>
<path d="M14.4 19.9053H12.4558L13.6718 12.3863H15.6159L14.4 19.9053Z" fill="#15195A"/>
<path fill-rule="evenodd" clip-rule="evenodd" d="M24.9277 12.3863H26.4315L28 19.9052H26.1999C26.1999 19.9052 26.0237 19.0412 25.9679 18.7773H23.4718L23.0637 19.9052H21.0238L23.9116 13.0102C24.1117 12.5222 24.464 12.3863 24.9277 12.3863ZM24.8079 15.1378C24.8079 15.1378 24.1918 16.8096 24.0317 17.2416H25.6477C25.5677 16.8656 25.1996 15.0658 25.1996 15.0658L25.0637 14.418C25.0065 14.5847 24.9239 14.8139 24.868 14.9686L24.8677 14.9695C24.83 15.074 24.8047 15.1443 24.8079 15.1378Z" fill="#15195A"/>
<path d="M10.8319 12.3863L8.92797 17.5135L8.71991 16.4737C8.71986 16.4735 8.71996 16.4738 8.71991 16.4737L8.03994 13.0183C7.92799 12.5381 7.58396 12.4021 7.15998 12.3863H4.032L4 12.5382C4.76289 12.7333 5.44523 13.0144 6.0431 13.364L7.77595 19.8973H9.83185L12.8877 12.3863H10.8319Z" fill="#15195A"/>
</svg>
